X: 37396
T: Sleepy Laddie
R: barndance
M: 4/4
K: Gmajor
D2|G3 A B2 D2|E2 G2 c2 e2|d3 B A2 G2|B4 A2||
D2|G3 A B2 D2|E2 G2 c2 e2|d3 B A2 B2|A4 G2||
d3 d d2 B2|c2 e2 d2 B2|G3 A B2 d2|dc Bc AD EF|
G3 A B2 D2|E2 G2 c2 e2|d3 B A2 B2|A4 G4||

